src/cmd/32/insertindexesentry.svg

<?xml version="1.0" encoding="UTF-8" standalone="no"?>
<svg
   xmlns:dc="http://purl.org/dc/elements/1.1/"
   xmlns:cc="http://creativecommons.org/ns#"
   xmlns:rdf="http://www.w3.org/1999/02/22-rdf-syntax-ns#"
   xmlns:svg="http://www.w3.org/2000/svg"
   xmlns="http://www.w3.org/2000/svg"
   xmlns:sodipodi="http://sodipodi.sourceforge.net/DTD/sodipodi-0.dtd"
   xmlns:inkscape="http://www.inkscape.org/namespaces/inkscape"
   viewBox="0 0 32 32"
   version="1.1"
   id="svg6"
   sodipodi:docname="insertindexesentry.svg"
   inkscape:version="0.92.4 (5da689c313, 2019-01-14)">
  <metadata
     id="metadata12">
    <rdf:RDF>
      <cc:Work
         rdf:about="">
        <dc:format>image/svg+xml</dc:format>
        <dc:type
           rdf:resource="http://purl.org/dc/dcmitype/StillImage" />
      </cc:Work>
    </rdf:RDF>
  </metadata>
  <defs
     id="defs10" />
  <sodipodi:namedview
     pagecolor="#ffffff"
     bordercolor="#666666"
     borderopacity="1"
     objecttolerance="10"
     gridtolerance="10"
     guidetolerance="10"
     inkscape:pageopacity="0"
     inkscape:pageshadow="2"
     inkscape:window-width="1920"
     inkscape:window-height="1011"
     id="namedview8"
     showgrid="true"
     inkscape:zoom="20.85965"
     inkscape:cx="8.3746436"
     inkscape:cy="19.120014"
     inkscape:window-x="0"
     inkscape:window-y="32"
     inkscape:window-maximized="1"
     inkscape:current-layer="svg6">
    <inkscape:grid
       type="xygrid"
       id="grid822" />
  </sodipodi:namedview>
  <path
     d="M 5.5,4 C 4.6715729,4 4,4.6715729 4,5.5 4,6.3284271 4.6715729,7 5.5,7 6.3284271,7 7,6.3284271 7,5.5 7,4.6715729 6.3284271,4 5.5,4 Z M 11,4 V 5 H 28 V 4 Z m 0,3 V 8 H 28 V 7 Z M 5.5,24 C 4.6715729,24 4,24.671573 4,25.5 4,26.328427 4.6715729,27 5.5,27 6.3284271,27 7,26.328427 7,25.5 7,24.671573 6.3284271,24 5.5,24 Z m 5.5,0 v 1 h 17 v -1 z m 0,3 v 1 h 17 v -1 z"
     id="path2"
     inkscape:connector-curvature="0"
     style="fill:#232629"
     sodipodi:nodetypes="sssssccccccccccssssscccccccccc" />
  <path
     d="M 5.5,14 C 4.6715729,14 4,14.671573 4,15.5 4,16.328427 4.6715729,17 5.5,17 6.3284271,17 7,16.328427 7,15.5 7,14.671573 6.3284271,14 5.5,14 Z m 5.5,0 v 1 h 17 v -1 z m 0,3 v 1 h 17 v -1 z"
     id="path4"
     inkscape:connector-curvature="0"
     style="fill:#762572"
     sodipodi:nodetypes="ssssscccccccccc" />
</svg>

<svg viewBox="0 0 32 32" xmlns="http://www.w3.org/2000/svg"><path d="m5.5 4a1.5 1.5 0 0 0 -1.5 1.5 1.5 1.5 0 0 0 1.5 1.5 1.5 1.5 0 0 0 1.5-1.5 1.5 1.5 0 0 0 -1.5-1.5zm5.5 0v1h17v-1zm0 3v1h13v-1zm-5.5 17a1.5 1.5 0 0 0 -1.5 1.5 1.5 1.5 0 0 0 1.5 1.5 1.5 1.5 0 0 0 1.5-1.5 1.5 1.5 0 0 0 -1.5-1.5zm5.5 0v1h17v-1zm0 3v1h11v-1zm13 1v1h4v-1z" fill="#232629"/><path d="m5.5 14a1.5 1.5 0 0 0 -1.5 1.5 1.5 1.5 0 0 0 1.5 1.5 1.5 1.5 0 0 0 1.5-1.5 1.5 1.5 0 0 0 -1.5-1.5zm5.5 0v1h17v-1zm0 3v1h4v-1zm8 0v1h9v-1z" fill="#762572"/></svg>
